assets/img/braze_icons/signal-03.svg

<svg fill="none" height="24" viewBox="0 0 24 24" width="24" xmlns="http://www.w3.org/2000/svg"><g clip-rule="evenodd" fill="#801ed7" fill-rule="evenodd"><path d="m15.5355 8.46447c-1.9526-1.95263-5.1184-1.95263-7.07103 0s-1.95263 5.11843 0 7.07103c.39052.3906.39052 1.0237 0 1.4142-.39053.3906-1.02369.3906-1.41422 0-2.73367-2.7336-2.73367-7.16578 0-9.89945s7.16585-2.73367 9.89945 0c2.7337 2.73367 2.7337 7.16585 0 9.89945-.3905.3906-1.0236.3906-1.4142 0-.3905-.3905-.3905-1.0236 0-1.4142 1.9527-1.9526 1.9527-5.1184 0-7.07103z"/><path d="m12.7071 11.2929c-.3905-.3905-1.0237-.3905-1.4142 0s-.3905 1.0237 0 1.4142.3905 1.0237 0 1.4142-1.0237.3905-1.41422 0c-1.17157-1.1716-1.17157-3.071 0-4.24262 1.17162-1.17157 3.07102-1.17157 4.24262 0 1.1716 1.17162 1.1716 3.07102 0 4.24262-.3905.3905-1.0237.3905-1.4142 0s-.3905-1.0237 0-1.4142.3905-1.0237 0-1.4142z"/><path d="m18.364 5.63604c-3.5148-3.51472-9.21324-3.51472-12.72796 0s-3.51472 9.21316 0 12.72796c.39052.3905.39052 1.0236 0 1.4142-.39053.3905-1.02369.3905-1.41421 0-4.2957712-4.2958-4.2957722-11.26061 0-15.55637 4.29576-4.2957717 11.26057-4.2957717 15.55637 0 4.2957 4.29576 4.2957 11.26057 0 15.55637-.3906.3905-1.0237.3905-1.4142 0-.3906-.3906-.3906-1.0237 0-1.4142 3.5147-3.5148 3.5147-9.21324 0-12.72796z"/></g></svg>

<svg width="24" height="24" viewBox="0 0 24 24" fill="none" xmlns="http://www.w3.org/2000/svg">
<path fill-rule="evenodd" clip-rule="evenodd" d="M15.5355 8.46447C13.5829 6.51184 10.4171 6.51184 8.46447 8.46447C6.51184 10.4171 6.51184 13.5829 8.46447 15.5355C8.85499 15.9261 8.85499 16.5592 8.46447 16.9497C8.07394 17.3403 7.44078 17.3403 7.05025 16.9497C4.31658 14.2161 4.31658 9.78392 7.05025 7.05025C9.78392 4.31658 14.2161 4.31658 16.9497 7.05025C19.6834 9.78392 19.6834 14.2161 16.9497 16.9497C16.5592 17.3403 15.9261 17.3403 15.5355 16.9497C15.145 16.5592 15.145 15.9261 15.5355 15.5355C17.4882 13.5829 17.4882 10.4171 15.5355 8.46447Z" fill="#801ED7"/>
<path fill-rule="evenodd" clip-rule="evenodd" d="M12.7071 11.2929C12.3166 10.9024 11.6834 10.9024 11.2929 11.2929C10.9024 11.6834 10.9024 12.3166 11.2929 12.7071C11.6834 13.0976 11.6834 13.7308 11.2929 14.1213C10.9024 14.5118 10.2692 14.5118 9.87868 14.1213C8.70711 12.9497 8.70711 11.0503 9.87868 9.87868C11.0503 8.70711 12.9497 8.70711 14.1213 9.87868C15.2929 11.0503 15.2929 12.9497 14.1213 14.1213C13.7308 14.5118 13.0976 14.5118 12.7071 14.1213C12.3166 13.7308 12.3166 13.0976 12.7071 12.7071C13.0976 12.3166 13.0976 11.6834 12.7071 11.2929Z" fill="#801ED7"/>
<path fill-rule="evenodd" clip-rule="evenodd" d="M18.364 5.63604C14.8492 2.12132 9.15076 2.12132 5.63604 5.63604C2.12132 9.15076 2.12132 14.8492 5.63604 18.364C6.02656 18.7545 6.02656 19.3876 5.63604 19.7782C5.24551 20.1687 4.61235 20.1687 4.22183 19.7782C-0.0739412 15.4824 -0.0739422 8.51759 4.22183 4.22183C8.51759 -0.0739417 15.4824 -0.0739417 19.7782 4.22183C24.0739 8.51759 24.0739 15.4824 19.7782 19.7782C19.3876 20.1687 18.7545 20.1687 18.364 19.7782C17.9734 19.3876 17.9734 18.7545 18.364 18.364C21.8787 14.8492 21.8787 9.15076 18.364 5.63604Z" fill="#801ED7"/>
</svg>
